X: 35758
T: Salley Picker, The
R: hornpipe
M: 4/4
K: Gmajor
D2|:G2BG D2EF|G2Bd gdBG|c2ec B2dB|AcBA ADEF|
G2BG D2EF|G2Bd g3g|fafd ege^c|1 d2dd d=cAF:|2 d2dd d3c||
|:Bddd eddd|gddd Bddd|efgf edcB|ABcA GFED|
EGGG DGGG|EGGG DGGG|1 Bdfe dcAF|G2Bd g2dc:|2 Ggfg ecAF|G2GG G2D2||

